!!!SOCIAL_FUNCTION:	songs with treatment of the sick
!!!PDT:	1943
!!!OTL: No_2_Song_When_Treating_Smallpox.krn
!!!REG: British Columbia
**kern
*staff1
=1-
*clefF4
*k[b-e-]
*M2/4
4r
8.r
16A\
=2
8.B-\L
16A\Jk
4B-\
=3
4r
8.r
16G\
=4||
*M3/4
8.F\L
16G\Jk
8F\
4r
16G\LL
16A\JJ
=5||
*M2/4
8B-\L
16F\L
16G\JJ
8B-\L
16.G\L
32G\JJk
=6
8.F\L
16G\Jk
8F\
16r
16F\
=7
4F\
16.G\LL
32G\K
16.G\
32G\JJk
=8
4F\
8D\
16r
16G\
=9
16F\LL
16G\J
8F\J
8D\L
16.G\L
32F\JJk
=10
8D\L
8F\J
8D\
16r
16G\
=11
8F\L
16F\L
16G\JJ
16F\LL
16D\
16.F\
32F\JJk
=12
8.D\L
16F\Jk
8D\
16r
16G\
=13
16F\LL
16G\J
8F\J
8D\L
16.G\L
32F\JJk
=14
8D\L
8F\J
8D\
16r
16G\
=15
8F\L
16F\L
16G\JJ
16F\LL
16D\
16.F\
32F\JJk
=16
8.D\L
16F\Jk
8D\
16r
16G\
=17
16F\LL
16G\J
8F\J
16F\LL
16D\
16.G\
32F\JJk
=18
8D\L
8F\J
8D\
16r
16A\
=19||
*M3/8
4G\
16B-\LL
16G\JJ
=20||
*M2/4
8F\L
[8D\J
8D\L]
16G\L
16G\JJ
=21
8F\L
16D\L
16D\JJ
8BB-/
8r
==
*-
